src/categories-icons-sprite/categories/svg-cat-hobby-scrap.svg

<svg width="31" height="28" viewBox="0 0 31 28" fill="none" xmlns="http://www.w3.org/2000/svg">
<path class="p-FBC56D" d="M30.834 9.03345V19.8735C30.834 23.5953 27.1243 25.832 21.7404 27.2051L15.417 25.402L14.2247 24.8961L9.09363 27.2051C3.70978 25.832 0 23.5953 0 19.8735V9.03345H30.834Z" fill="#76B7E2"/>
<path class="p-EBAE56" d="M30.834 9.03345V19.8735C30.834 23.5953 27.1242 25.832 21.7404 27.2051L15.417 25.402V9.03345H30.834Z" fill="#58ADE5"/>
<path class="p-ECECF1" d="M21.7405 15.5885L20.801 16.3111L21.7405 16.6363V19.4909L21.1805 21.5867L21.7405 22.0563V27.2054C19.9338 27.6932 17.9284 27.9642 15.8145 27.9823L15.4171 27.5306L15.2003 27.2958L13.3214 27.91C12.4542 27.8558 11.6051 27.7474 10.792 27.5847L10.8642 26.5008L9.09375 26.7176V23.8629L9.88869 22.0925L9.09375 21.2975V14.7573H21.7405V15.5885Z" fill="#A1D1FD"/>
<path class="p-D3D3D8" d="M21.7404 15.5884L20.8008 16.311L21.7404 16.6362V19.4908L21.1803 21.5866L21.7404 22.0563V27.2054C19.9337 27.6931 17.9283 27.9641 15.8144 27.9822L15.417 27.5306V14.7573H21.7404V15.5884Z" fill="#4D98CB"/>
<path class="p-FF637B" d="M16.0494 16.8889L9.09375 23.8627V21.2973L14.7849 15.6243L16.0494 16.8889Z" fill="#5FBEFF"/>
<path class="p-FF637B" d="M21.7405 15.5879V16.6357L10.792 27.5842C10.1958 27.4758 9.63575 27.3495 9.09375 27.2049V26.717L15.4171 20.4117L20.2049 15.624L21.7405 15.5879Z" fill="#5FBEFF"/>
<path class="p-FF637B" d="M21.7404 19.4905V22.0559L15.8144 27.9819C15.688 28 15.5434 28 15.417 28C14.7124 28 14.0077 27.9819 13.3213 27.9097L15.417 25.8139L21.7404 19.4905Z" fill="#5FBEFF"/>
<path class="p-E63950" d="M21.7404 15.5879V16.6357L15.417 22.9591V20.4117L20.2048 15.624L21.7404 15.5879Z" fill="#76B7E2"/>
<path class="p-E63950" d="M15.417 25.8139L21.7404 19.4905V22.0559L15.8144 27.9819C15.6881 28 15.5435 28 15.417 28V25.8139Z" fill="#76B7E2"/>
<path class="p-EBAE56" d="M15.417 0C6.79909 0 0 3.9747 0 9.03341C0 14.0921 6.79909 18.0668 15.417 18.0668C24.035 18.0668 30.834 14.0921 30.834 9.03341C30.834 3.9747 24.035 0 15.417 0Z" fill="#B9DFFC"/>
<path class="p-CC9249" d="M30.834 9.03341C30.834 14.0921 24.0349 18.0668 15.417 18.0668V0C24.0349 0 30.834 3.9747 30.834 9.03341Z" fill="#A1D1FD"/>
<path class="p-895D3C" d="M15.4172 5.47412C11.3521 5.47412 7.28711 6.64852 7.28711 9.03334C7.28711 11.4001 11.3702 12.6467 15.4172 12.6467C19.4641 12.6467 23.5472 11.4001 23.5472 9.03334C23.5472 6.64852 19.4822 5.47412 15.4172 5.47412Z" fill="#76B7E2"/>
<path class="p-714C2F" d="M23.5471 9.03334C23.5471 11.4001 19.464 12.6467 15.417 12.6467V5.47412C19.482 5.47412 23.5471 6.64852 23.5471 9.03334Z" fill="#65B3E7"/>
<path class="p-714C2F" d="M21.7405 9.0333C21.7405 9.55718 19.5184 10.84 15.4171 10.84C11.3159 10.84 9.09375 9.55718 9.09375 9.0333C9.09375 8.52737 11.3159 7.28076 15.4171 7.28076C19.5184 7.28076 21.7405 8.52737 21.7405 9.0333Z" fill="#58ADE5"/>
<path class="p-523522" d="M21.7404 9.0333C21.7404 9.55718 19.5182 10.84 15.417 10.84V7.28076C19.5182 7.28076 21.7404 8.52737 21.7404 9.0333Z" fill="#4D98CB"/>
</svg>

<svg width="31" height="28" fill="none" xmlns="http://www.w3.org/2000/svg"><path class="p-FBC56D" d="M30.834 9.033v10.84c0 3.722-3.71 5.959-9.094 7.332l-6.323-1.803-1.192-.506-5.131 2.31C3.71 25.831 0 23.595 0 19.873V9.034h30.834z" fill="#76B7E2"/><path class="p-EBAE56" d="M30.834 9.033v10.84c0 3.722-3.71 5.959-9.094 7.332l-6.323-1.803V9.033h15.417z" fill="#58ADE5"/><path class="p-ECECF1" d="M21.74 15.588l-.939.723.94.325v2.855l-.56 2.096.56.47v5.148c-1.807.488-3.813.76-5.926.777l-.398-.451-.217-.235-1.879.614a18.95 18.95 0 01-2.529-.325l.072-1.084-1.77.217v-2.855l.795-1.77-.795-.796v-6.54H21.74v.832z" fill="#A1D1FD"/><path class="p-D3D3D8" d="M21.74 15.588l-.94.723.94.325v2.855l-.56 2.096.56.47v5.148c-1.806.488-3.812.76-5.926.777l-.397-.451V14.757h6.323v.831z" fill="#4D98CB"/><path class="p-FF637B" d="M16.05 16.889l-6.956 6.974v-2.566l5.69-5.673 1.265 1.265zM21.74 15.588v1.048L10.793 27.584a21.41 21.41 0 01-1.698-.38v-.487l6.323-6.305 4.788-4.788 1.536-.036zM21.74 19.49v2.566l-5.926 5.926c-.126.018-.27.018-.397.018-.705 0-1.41-.018-2.096-.09l2.096-2.096 6.323-6.323z" fill="#5FBEFF"/><path class="p-E63950" d="M21.74 15.588v1.048l-6.323 6.323v-2.547l4.788-4.788 1.535-.036zM15.417 25.814l6.323-6.323v2.565l-5.926 5.926c-.126.018-.27.018-.397.018v-2.186z" fill="#76B7E2"/><path class="p-EBAE56" d="M15.417 0C6.799 0 0 3.975 0 9.033c0 5.06 6.8 9.034 15.417 9.034 8.618 0 15.417-3.975 15.417-9.034C30.834 3.975 24.035 0 15.417 0z" fill="#B9DFFC"/><path class="p-CC9249" d="M30.834 9.033c0 5.06-6.8 9.034-15.417 9.034V0c8.618 0 15.417 3.975 15.417 9.033z" fill="#A1D1FD"/><path class="p-895D3C" d="M15.417 5.474c-4.065 0-8.13 1.175-8.13 3.56 0 2.366 4.083 3.613 8.13 3.613 4.047 0 8.13-1.247 8.13-3.614 0-2.384-4.065-3.559-8.13-3.559z" fill="#76B7E2"/><path class="p-714C2F" d="M23.547 9.033c0 2.367-4.083 3.614-8.13 3.614V5.474c4.065 0 8.13 1.175 8.13 3.56z" fill="#65B3E7"/><path class="p-714C2F" d="M21.74 9.033c0 .524-2.222 1.807-6.323 1.807-4.101 0-6.323-1.283-6.323-1.807 0-.506 2.222-1.752 6.323-1.752 4.101 0 6.324 1.246 6.324 1.752z" fill="#58ADE5"/><path class="p-523522" d="M21.74 9.033c0 .524-2.222 1.807-6.323 1.807V7.28c4.101 0 6.323 1.247 6.323 1.753z" fill="#4D98CB"/></svg>
